src/assets/icons-components/building-type.svg

<svg width="32" height="32" viewBox="0 0 32 32" fill="none" xmlns="http://www.w3.org/2000/svg">
<path fill-rule="evenodd" clip-rule="evenodd" d="M6.25 6.25H14.75V14.75H6.25V6.25ZM7.75 7.75V13.25H13.25V7.75H7.75ZM17.25 6.25H25.75V14.75H17.25V6.25ZM18.75 7.75V13.25H24.25V7.75H18.75ZM6.25 17.25H14.75V25.75H6.25V17.25ZM7.75 18.75V24.25H13.25V18.75H7.75ZM17.25 17.25H25.75V25.75H17.25V17.25ZM18.75 18.75V24.25H24.25V18.75H18.75Z" fill="#2E2B26"/>
</svg>

<svg width="32" height="32" fill="none" xmlns="http://www.w3.org/2000/svg"><path fill-rule="evenodd" clip-rule="evenodd" d="M6.25 6.25h8.5v8.5h-8.5v-8.5Zm1.5 1.5v5.5h5.5v-5.5h-5.5Zm9.5-1.5h8.5v8.5h-8.5v-8.5Zm1.5 1.5v5.5h5.5v-5.5h-5.5Zm-12.5 9.5h8.5v8.5h-8.5v-8.5Zm1.5 1.5v5.5h5.5v-5.5h-5.5Zm9.5-1.5h8.5v8.5h-8.5v-8.5Zm1.5 1.5v5.5h5.5v-5.5h-5.5Z" fill="#2E2B26"/></svg>
